X:10
T:Sarner-Juiz  F 3+
S:Julius Stockmann (3.3.1897-5.3.1956)
S:Dirigenten-Notiz, Edi Gasser.
%C:Unterwalden (CH)
M:3/4
%Q:1/4=110
R:Naturjodel
L:1/8
K:F
[P:A] "ausdrucksvoll" F>D Cc f/2c/2A/2F/2 | E>D C.c Bc | E>D Cc e/2c/2B/2E/2 | F>D Cc A!fermata!c | 
F>D Cc f/2c/2A/2F/2 | E>D Cc B/2d/2c | E>D Cc B/2d/2c/2E/2 | !fermata!F4 ||
M:6/8
L:1/8
[P:B] "frÃ¶hlich-beschwingt" 
F E D | C3E2c | B d c B D E | F3 A2f | c3 d c F | 
E3 G B e | c3 d c E | F3 A2f | c3 F E D | C3 E2c | B d c B D E | 
F3 A2f | c3 c C F | E3 G B e | c3 c e g | (f6 | f2)z || 
M:6/8
[P:C] "kraftvoll-erhaben" F2F | F3 F B d | f3 g f d | c3 A c A | F3 d c A | c3 B c B | 
E3 d c G | c3 A c A | !breath! F3 F2F | F3 F B d | f3 g f d | 
c3 f c A | F3 d c A | c3 B c B | E3 (g2g/2f/2) | (f6 | f)z |] 
W:
W:Reihenfolge: A-B-C
%W:notiert Edi Gasser, nach Angaben von August Wirz
%W:UJV-Naturjodelsammlung: Code-Nr: 01-05
%W:http://www.naturjodler.ch/code 01.htm  (with AUDIO)
%April 25, 2018

